dist/svgs/unicons/line/drill.svg

<svg xmlns="http://www.w3.org/2000/svg" data-name="Layer 1" viewBox="0 0 24 24"><path d="M19 4H9a1 1 0 00-1 1v2H3a1 1 0 000 2h5v4a1 1 0 002 0v-1h4v7a1 1 0 001 1h2a3 3 0 003-3v-5.18A3 3 0 0022 9V7a3 3 0 00-3-3zm-1 13a1 1 0 01-1 1h-1v-6h2zm2-8a1 1 0 01-1 1h-9V6h6v1a1 1 0 002 0V6h1a1 1 0 011 1z"/></svg>

<svg xmlns="http://www.w3.org/2000/svg" data-name="Layer 1" viewBox="0 0 24 24"><path d="M19,4H9A1,1,0,0,0,8,5V7H3A1,1,0,0,0,3,9H8v4a1,1,0,0,0,2,0V12h4v7a1,1,0,0,0,1,1h2a3,3,0,0,0,3-3V11.82A3,3,0,0,0,22,9V7A3,3,0,0,0,19,4ZM18,17a1,1,0,0,1-1,1H16V12h2Zm2-8a1,1,0,0,1-1,1H10V6h6V7a1,1,0,0,0,2,0V6h1a1,1,0,0,1,1,1Z"/></svg>
